X: 43293
T: Wooden Shutters, The
R: slip jig
M: 9/8
K: Gmajor
GAB d2B cBA|~G3 EFG AFD|GAB dAB cde|d2g edB AFD|
GAB dAB cBA|~G3 EFG AFD|E2B cBA GAB|~A3 ABd ~^c3||
Bef aef fed|Bef g2e fed|Bef g2a gab|afe de^c dBA|
Bef aef fed|Bef g2e fga|b2g a2f gfe|fed edB AFD||
|:~E3 cBA Bcd|~E3 cBA BGD|~E3 cBA Bcd|1 e2c d2B cBA:|2 efg edB AFD||

